X: 2
T: The Boys Of The Lough
R: reel
M: 4/4
L: 1/8
K: Dmaj
dB|AF(3FFF AFAB|defd ~B3d|AF(3FFF dF(3FFF|EDEF E2dB|AF~F2 A2AB|defd ~B3d|AF(3FFF dF(3FFF|EDEF D2dB||AF~F2 A2AB|defd ecdB|AF(3FFF dF(3FFF|EG(3FED EFGB|AF~F2 A2AB|defd ~B3d|AF(3FFF dF(3FFF|GFEG FDDg||fg(3agf gfec|defd ecdB|AF(3FFF dF(3FFF|~EDEF E2FE|D2af gfec|decd BcdB|AF(3FFF dF(3FFF|GFEG FDDg||fgaf gfec|defd ~B3d|AF(3FFF ABde|~f2gf e2fg|(3agf (3gfe fdec|(3dcB (3cBA BcdB|AF(3FFF dF(3FFF|EGFE DEFG||(3ABA FA A2FA|defd (3cBA Bd|AF(3FFF dF(3FFF|~EDEF E2dB|AF~F2 A2AB|defd ~B3d|AF(3FFF dF(3FFF|EDEF D2dB||AF~F2 A2AB|defd ~B3d|AF(3FFF AFDF|(3GFE (3FED CDEF|(3ABA FA A2FA|defd (3cBA Bd|AF(3FFF dF(3FFF|GFEG FDDg||fg(3agf gfec|dB~B2 GB~B2|AF(3FFF dF(3FFF|~EDEF E2FE|D2af gfec|(3dcB (3cBA BcdB|AF(3FFF dF(3FFF|GFEG FDDg||fg(3agf gfec|defd ecdB|AF(3FFF ABde|~f2gf e2fg|(3agf (3gfe fdec|(3dcB (3cBA BcdB|AF(3FFF dF(3FFF|EA,CE DEFA||(3ABA FA DAFA|(3ded cd B2dB|AF(3FFF AFDF|(3GFE (3FED CDEF|(3ABA FA DAFA|defd BdcB|AF(3FFF dF(3FFF|EA,CE D2dB||AF(3FFF AFAB|defd ~B3d|AF(3FFF dF(3FFF|AF(3FFF EFGB|AF~F2 A2AB|defd BABd|AF(3FFF dF(3FFF|GFEG FDDg||fgaf gfec|defd ~BABd|AF(3FFF dF(3FFF|(3GFE (3FED EGFE|D2af gfec|~d2 ~c2 ~BABd|AF(3FFF dF(3FFF|GFEG FDDg||fgaf gfec|defd ~B3d|AF(3FFF ABde|fdgf e2fg|(3agf (3gfe fdec|(3dcB (3cBA BcdB|AF(3FFF dF(3FFF|EDEF D2||


Tune 343	Setting 343

